X:63
T:T036- The Humours of Kilkenny
S:McGlashan's Scots Measures, c 1778
Q:1/4=120
L:1/8
M:6/8
K:A
cAA A2c|efee2d|cAA Ace|f3a3|Ace agf|~fed ~dcB|\
~cAF ~FEF|d3c2B|cAAA2c|efe~e2d|cAA Ace|f3a3|\
Ace afa|geg fdf|cAA ~FEF|d3c3::cAF ~FEF|AFE E2d|\
~cAF ~FEF|d3dfd|~cAF ~FEF|AFE E2d|~cBA BAF|A3A3:|]

